public/assets/tasaed.svg

<?xml version="1.0" encoding="UTF-8"?><!-- TASA-Ed logo © 2021 by ccD2s is licensed under CC BY-SA 4.0. To view a copy of this license, visit https://creativecommons.org/licenses/by-sa/4.0/ --><svg xmlns="http://www.w3.org/2000/svg" viewBox="0 0 13 13"><defs><style>.cls-1{fill:aqua;}.cls-2{fill:#fff;}.cls-3{fill:#999;}.cls-4{fill:#a8a8a8;}.cls-5{fill:#f90;}.cls-6{fill:#0f6;}.cls-7{fill:#ff0;}</style></defs><g id="rainbow"><path class="cls-5" d="M11,2v9H2V2h9M12,1H1v11h11V1Z"/><path class="cls-7" d="M10,3v7H3V3h7M11,2H2v9h9V2Z"/><path class="cls-6" d="M9,4v5h-5v-5h5M10,3H3v7h7V3Z"/><path class="cls-1" d="M8,5v3h-3v-3h3M9,4h-5v5h5v-5Z"/><path class="cls-4" d="M7,6v1h-1v-1h1M8,5h-3v3h3v-3Z"/></g><g id="halfx"><polygon class="cls-3" points="12 1 11 1 11 2 12 2 12 1 12 1"/><polygon class="cls-3" points="11 2 10 2 10 3 11 3 11 2 11 2"/><polygon class="cls-3" points="10 3 9 3 9 4 10 4 10 3 10 3"/><polygon class="cls-3" points="9 4 8 4 8 5 9 5 9 4 9 4"/><polygon class="cls-3" points="5 8 4 8 4 9 5 9 5 8 5 8"/><polygon class="cls-3" points="4 9 3 9 3 10 4 10 4 9 4 9"/><polygon class="cls-3" points="3 10 2 10 2 11 3 11 3 10 3 10"/><polygon class="cls-3" points="2 11 1 11 1 12 2 12 2 11 2 11"/><polygon class="cls-3" points="12 11 11 11 11 12 12 12 12 11 12 11"/><polygon class="cls-3" points="11 10 10 10 10 11 11 11 11 10 11 10"/><polygon class="cls-3" points="10 9 9 9 9 10 10 10 10 9 10 9"/><polygon class="cls-3" points="9 8 8 8 8 9 9 9 9 8 9 8"/><polygon class="cls-3" points="5 4 4 4 4 5 5 5 5 4 5 4"/><polygon class="cls-3" points="4 3 3 3 3 4 4 4 4 3 4 3"/><polygon class="cls-3" points="3 2 2 2 2 3 3 3 3 2 3 2"/><polygon class="cls-3" points="2 1 1 1 1 2 2 2 2 1 2 1"/></g><g id="cross"><polygon points="7 .75 6 .75 6 12.25 7 12.25 7 .75 7 .75"/><path d="M12,1v11H1V1h11M13,0H0v13h13V0Z"/><polygon points="12.25 6 .75 6 .75 7 12.25 7 12.25 6 12.25 6"/></g><g id="tlogo"><polygon class="cls-2" points="9 3 4 3 4 4 9 4 9 3 9 3"/><polygon class="cls-2" points="7 3.5 6 3.5 6 9 7 9 7 3.5 7 3.5"/></g></svg>

<svg id="图层_1" data-name="图层 1" xmlns="http://www.w3.org/2000/svg" viewBox="0 0 13 13"><defs><style>.cls-1{fill:#fff;}.cls-2{fill:#f90;}.cls-3{fill:#ff0;}.cls-4{fill:#0f6;}.cls-5{fill:aqua;}.cls-6{fill:#a8a8a8;}.cls-7{fill:#999;}</style></defs><rect class="cls-1" x="1.5" y="1.5" width="10" height="10"/><path class="cls-2" d="M11,2v9H2V2h9m1-1H1V12H12V1Z"/><rect class="cls-1" x="2.5" y="2.5" width="8" height="8"/><path class="cls-3" d="M10,3v7H3V3h7m1-1H2v9h9V2Z"/><rect class="cls-1" x="3.5" y="3.5" width="6" height="6"/><path class="cls-4" d="M9,4V9H4V4H9m1-1H3v7h7V3Z"/><rect class="cls-1" x="4.5" y="4.5" width="4" height="4"/><path class="cls-5" d="M8,5V8H5V5H8M9,4H4V9H9V4Z"/><rect class="cls-1" x="5.5" y="5.5" width="2" height="2"/><path class="cls-6" d="M7,6V7H6V6H7M8,5H5V8H8V5Z"/><path class="cls-1" d="M6.5,11.5Z"/><polygon points="7 1 6 1 6 12 7 12 7 1 7 1"/><rect class="cls-1" x="11" y="1" width="1" height="1"/><polygon class="cls-7" points="12 1 11 1 11 2 12 2 12 1 12 1"/><rect class="cls-1" x="10" y="2" width="1" height="1"/><polygon class="cls-7" points="11 2 10 2 10 3 11 3 11 2 11 2"/><rect class="cls-1" x="9" y="3" width="1" height="1"/><polygon class="cls-7" points="10 3 9 3 9 4 10 4 10 3 10 3"/><rect class="cls-1" x="8" y="4" width="1" height="1"/><polygon class="cls-7" points="9 4 8 4 8 5 9 5 9 4 9 4"/><rect class="cls-1" x="4" y="8" width="1" height="1"/><polygon class="cls-7" points="5 8 4 8 4 9 5 9 5 8 5 8"/><rect class="cls-1" x="3" y="9" width="1" height="1"/><polygon class="cls-7" points="4 9 3 9 3 10 4 10 4 9 4 9"/><rect class="cls-1" x="2" y="10" width="1" height="1"/><polygon class="cls-7" points="3 10 2 10 2 11 3 11 3 10 3 10"/><rect class="cls-1" x="1" y="11" width="1" height="1"/><polygon class="cls-7" points="2 11 1 11 1 12 2 12 2 11 2 11"/><rect class="cls-1" x="11" y="11" width="1" height="1"/><polygon class="cls-7" points="12 11 11 11 11 12 12 12 12 11 12 11"/><rect class="cls-1" x="10" y="10" width="1" height="1"/><polygon class="cls-7" points="11 10 10 10 10 11 11 11 11 10 11 10"/><rect class="cls-1" x="9" y="9" width="1" height="1"/><polygon class="cls-7" points="10 9 9 9 9 10 10 10 10 9 10 9"/><rect class="cls-1" x="8" y="8" width="1" height="1"/><polygon class="cls-7" points="9 8 8 8 8 9 9 9 9 8 9 8"/><rect class="cls-1" x="4" y="4" width="1" height="1"/><polygon class="cls-7" points="5 4 4 4 4 5 5 5 5 4 5 4"/><rect class="cls-1" x="3" y="3" width="1" height="1"/><polygon class="cls-7" points="4 3 3 3 3 4 4 4 4 3 4 3"/><rect class="cls-1" x="2" y="2" width="1" height="1"/><polygon class="cls-7" points="3 2 2 2 2 3 3 3 3 2 3 2"/><rect class="cls-1" x="1" y="1" width="1" height="1"/><polygon class="cls-7" points="2 1 1 1 1 2 2 2 2 1 2 1"/><rect class="cls-1" x="4" y="3" width="5" height="1"/><polygon class="cls-1" points="9 3 4 3 4 4 9 4 9 3 9 3"/><path d="M12,1V12H1V1H12m1-1H0V13H13V0Z"/><polygon points="12 6 1 6 1 7 12 7 12 6 12 6"/><polygon class="cls-1" points="7 4 6 4 6 9 7 9 7 4 7 4"/></svg>
